packages/Iconly/src/Chat3Icon/index.svg

<svg xmlns="http://www.w3.org/2000/svg" width="24" height="24" viewBox="0 0 24 24"><g fill="none" fill-rule="evenodd" stroke="#200E32" stroke-linecap="round" stroke-linejoin="round" stroke-width="1.5" transform="translate(2 2)"><path d="M10.0568181,-3.37507799e-14 C6.54686532,-0.0141015786 3.28556632,1.80703838 1.46050022,4.80034679 C-0.364565872,7.7936552 -0.487081058,11.5223413 1.13756771,14.6286303 L1.33789312,15.0191059 C1.50209106,15.3263704 1.53643729,15.6864194 1.43328617,16.0191043 C1.14742034,16.7783674 0.908488743,17.5544276 0.71783828,18.3429101 C0.71783828,18.7429095 0.832309942,18.9714806 1.26157868,18.9619568 C2.02189879,18.7940564 2.77067506,18.5777416 3.5033154,18.3143388 C3.81886183,18.2274425 4.15437035,18.2475403 4.45724592,18.3714815 C4.73388577,18.5048146 5.29670478,18.8476712 5.31578339,18.8476712 C8.99153503,20.7804333 13.4807954,20.2472199 16.5997521,17.5074142 C19.7187087,14.7676084 20.8198838,10.3899785 19.3676078,6.50403406 C17.9153318,2.6180896 14.211089,0.0305307279 10.0568181,-3.37507799e-14 L10.0568181,-3.37507799e-14 Z"/><ellipse cx="5.287" cy="10" fill="#200E32" rx="1" ry="1"/><ellipse cx="10.057" cy="10" fill="#200E32" rx="1" ry="1"/><ellipse cx="14.826" cy="10" fill="#200E32" rx="1" ry="1"/></g></svg>

<svg xmlns="http://www.w3.org/2000/svg" viewBox="0 0 24 24">
  <g fill="none" fill-rule="evenodd" stroke="#200E32" stroke-linecap="round" stroke-linejoin="round" stroke-width="1.5" transform="translate(2 2)">
    <path d="M10.057 0A10.02 10.02 0 001.46 4.8a9.986 9.986 0 00-.323 9.829l.2.39c.164.307.198.667.095 1a19.67 19.67 0 00-.715 2.324c0 .4.114.628.544.619.76-.168 1.509-.384 2.241-.648a1.48 1.48 0 01.954.057c.277.134.84.477.859.477a10.03 10.03 0 0011.284-1.34 9.99 9.99 0 002.768-11.004A10.016 10.016 0 0010.057 0h0z"/>
    <circle cx="5.287" cy="10" fill="#200E32" r="1"/>
    <circle cx="10.057" cy="10" fill="#200E32" r="1"/>
    <circle cx="14.826" cy="10" fill="#200E32" r="1"/>
  </g>
</svg>
